images/16757887.svg

<?xml version="1.0" encoding="UTF-8"?>
<svg xmlns="http://www.w3.org/2000/svg" xmlns:xlink="http://www.w3.org/1999/xlink" width="300pt" height="300pt" viewBox="0 0 300 300" version="1.1">
<defs>
<g>
<symbol overflow="visible" id="glyph0-0">
<path style="stroke:none;" d="M 0.59375 2.125 L 0.59375 -8.46875 L 6.59375 -8.46875 L 6.59375 2.125 Z M 1.265625 1.453125 L 5.9375 1.453125 L 5.9375 -7.78125 L 1.265625 -7.78125 Z M 1.265625 1.453125 "/>
</symbol>
<symbol overflow="visible" id="glyph0-1">
<path style="stroke:none;" d="M 4.734375 -7.953125 C 3.867188 -7.953125 3.179688 -7.628906 2.671875 -6.984375 C 2.171875 -6.347656 1.921875 -5.472656 1.921875 -4.359375 C 1.921875 -3.265625 2.171875 -2.394531 2.671875 -1.75 C 3.179688 -1.113281 3.867188 -0.796875 4.734375 -0.796875 C 5.585938 -0.796875 6.265625 -1.113281 6.765625 -1.75 C 7.273438 -2.394531 7.53125 -3.265625 7.53125 -4.359375 C 7.53125 -5.472656 7.273438 -6.347656 6.765625 -6.984375 C 6.265625 -7.628906 5.585938 -7.953125 4.734375 -7.953125 Z M 4.734375 -8.90625 C 5.953125 -8.90625 6.925781 -8.492188 7.65625 -7.671875 C 8.394531 -6.847656 8.765625 -5.742188 8.765625 -4.359375 C 8.765625 -2.984375 8.394531 -1.882812 7.65625 -1.0625 C 6.925781 -0.238281 5.953125 0.171875 4.734375 0.171875 C 3.503906 0.171875 2.519531 -0.238281 1.78125 -1.0625 C 1.039062 -1.882812 0.671875 -2.984375 0.671875 -4.359375 C 0.671875 -5.742188 1.039062 -6.847656 1.78125 -7.671875 C 2.519531 -8.492188 3.503906 -8.90625 4.734375 -8.90625 Z M 4.734375 -8.90625 "/>
</symbol>
<symbol overflow="visible" id="glyph0-2">
<path style="stroke:none;" d="M 1.171875 -8.75 L 2.359375 -8.75 L 2.359375 -5.15625 L 6.65625 -5.15625 L 6.65625 -8.75 L 7.84375 -8.75 L 7.84375 0 L 6.65625 0 L 6.65625 -4.171875 L 2.359375 -4.171875 L 2.359375 0 L 1.171875 0 Z M 1.171875 -8.75 "/>
</symbol>
</g>
</defs>
<g id="surface45913">
<rect x="0" y="0" width="300" height="300" style="fill:rgb(100%,100%,100%);fill-opacity:1;stroke:none;"/>
<path style="fill:none;stroke-width:1.2;stroke-linecap:butt;stroke-linejoin:miter;stroke:rgb(0%,0%,0%);stroke-opacity:1;stroke-miterlimit:10;" d="M 168.972656 242.128906 L 181.382812 232.945312 "/>
<path style="fill:none;stroke-width:1.2;stroke-linecap:butt;stroke-linejoin:miter;stroke:rgb(100%,0%,0%);stroke-opacity:1;stroke-miterlimit:10;" d="M 181.382812 232.945312 L 193.792969 223.761719 "/>
<path style="fill:none;stroke-width:1.2;stroke-linecap:butt;stroke-linejoin:miter;stroke:rgb(100%,0%,0%);stroke-opacity:1;stroke-miterlimit:10;" d="M 193.792969 223.761719 L 192.042969 208.421875 "/>
<path style="fill:none;stroke-width:1.2;stroke-linecap:butt;stroke-linejoin:miter;stroke:rgb(0%,0%,0%);stroke-opacity:1;stroke-miterlimit:10;" d="M 192.042969 208.421875 L 190.292969 193.082031 "/>
<path style=" stroke:none;fill-rule:nonzero;fill:rgb(100%,100%,100%);fill-opacity:1;" d="M 188.792969 216.761719 L 198.792969 216.761719 L 198.792969 230.761719 L 188.792969 230.761719 Z M 188.792969 216.761719 "/>
<g style="fill:rgb(100%,0%,0%);fill-opacity:1;">
  <use xlink:href="#glyph0-1" x="188.792969" y="227.900391"/>
</g>
<path style="fill:none;stroke-width:1.2;stroke-linecap:butt;stroke-linejoin:miter;stroke:rgb(0%,0%,0%);stroke-opacity:1;stroke-miterlimit:10;" d="M 190.292969 193.082031 L 161.976562 180.773438 "/>
<path style="fill:none;stroke-width:1.2;stroke-linecap:butt;stroke-linejoin:miter;stroke:rgb(0%,0%,0%);stroke-opacity:1;stroke-miterlimit:10;" d="M 190.359375 185.191406 L 167.707031 175.34375 "/>
<path style="fill:none;stroke-width:1.2;stroke-linecap:butt;stroke-linejoin:miter;stroke:rgb(0%,0%,0%);stroke-opacity:1;stroke-miterlimit:10;" d="M 215.113281 174.714844 L 190.292969 193.082031 "/>
<path style="fill:none;stroke-width:1.2;stroke-linecap:butt;stroke-linejoin:miter;stroke:rgb(0%,0%,0%);stroke-opacity:1;stroke-miterlimit:10;" d="M 161.976562 180.773438 L 158.480469 150.097656 "/>
<path style="fill:none;stroke-width:1.2;stroke-linecap:butt;stroke-linejoin:miter;stroke:rgb(0%,0%,0%);stroke-opacity:1;stroke-miterlimit:10;" d="M 158.480469 150.097656 L 183.296875 131.726562 "/>
<path style="fill:none;stroke-width:1.2;stroke-linecap:butt;stroke-linejoin:miter;stroke:rgb(0%,0%,0%);stroke-opacity:1;stroke-miterlimit:10;" d="M 165.285156 154.097656 L 185.136719 139.40625 "/>
<path style="fill:none;stroke-width:1.2;stroke-linecap:butt;stroke-linejoin:miter;stroke:rgb(0%,0%,0%);stroke-opacity:1;stroke-miterlimit:10;" d="M 158.480469 150.097656 L 130.164062 137.785156 "/>
<path style="fill:none;stroke-width:1.2;stroke-linecap:butt;stroke-linejoin:miter;stroke:rgb(0%,0%,0%);stroke-opacity:1;stroke-miterlimit:10;" d="M 183.296875 131.726562 L 211.613281 144.039062 "/>
<path style="fill:none;stroke-width:1.2;stroke-linecap:butt;stroke-linejoin:miter;stroke:rgb(0%,0%,0%);stroke-opacity:1;stroke-miterlimit:10;" d="M 211.613281 144.039062 L 215.113281 174.714844 "/>
<path style="fill:none;stroke-width:1.2;stroke-linecap:butt;stroke-linejoin:miter;stroke:rgb(0%,0%,0%);stroke-opacity:1;stroke-miterlimit:10;" d="M 204.746094 147.929688 L 207.542969 172.46875 "/>
<path style="fill:none;stroke-width:1.2;stroke-linecap:butt;stroke-linejoin:miter;stroke:rgb(0%,0%,0%);stroke-opacity:1;stroke-miterlimit:10;" d="M 211.613281 144.039062 L 224.023438 134.851562 "/>
<path style="fill:none;stroke-width:1.2;stroke-linecap:butt;stroke-linejoin:miter;stroke:rgb(100%,0%,0%);stroke-opacity:1;stroke-miterlimit:10;" d="M 224.023438 134.851562 L 236.433594 125.667969 "/>
<path style="fill:none;stroke-width:1.2;stroke-linecap:butt;stroke-linejoin:miter;stroke:rgb(0%,0%,0%);stroke-opacity:1;stroke-miterlimit:10;" d="M 215.113281 174.714844 L 229.269531 180.871094 "/>
<path style="fill:none;stroke-width:1.2;stroke-linecap:butt;stroke-linejoin:miter;stroke:rgb(100%,0%,0%);stroke-opacity:1;stroke-miterlimit:10;" d="M 229.269531 180.871094 L 243.429688 187.023438 "/>
<path style="fill:none;stroke-width:1.2;stroke-linecap:butt;stroke-linejoin:miter;stroke:rgb(100%,0%,0%);stroke-opacity:1;stroke-miterlimit:10;" d="M 243.429688 187.023438 L 245.179688 202.363281 "/>
<path style="fill:none;stroke-width:1.2;stroke-linecap:butt;stroke-linejoin:miter;stroke:rgb(0%,0%,0%);stroke-opacity:1;stroke-miterlimit:10;" d="M 245.179688 202.363281 L 246.925781 217.703125 "/>
<path style=" stroke:none;fill-rule:nonzero;fill:rgb(100%,100%,100%);fill-opacity:1;" d="M 238.429688 180.023438 L 248.429688 180.023438 L 248.429688 194.023438 L 238.429688 194.023438 Z M 238.429688 180.023438 "/>
<g style="fill:rgb(100%,0%,0%);fill-opacity:1;">
  <use xlink:href="#glyph0-1" x="238.429688" y="191.162109"/>
</g>
<path style="fill:none;stroke-width:1.2;stroke-linecap:butt;stroke-linejoin:miter;stroke:rgb(100%,0%,0%);stroke-opacity:1;stroke-miterlimit:10;" d="M 236.433594 125.667969 L 250.589844 131.824219 "/>
<path style="fill:none;stroke-width:1.2;stroke-linecap:butt;stroke-linejoin:miter;stroke:rgb(0%,0%,0%);stroke-opacity:1;stroke-miterlimit:10;" d="M 250.589844 131.824219 L 264.75 137.980469 "/>
<path style=" stroke:none;fill-rule:nonzero;fill:rgb(100%,100%,100%);fill-opacity:1;" d="M 231.433594 118.667969 L 241.433594 118.667969 L 241.433594 132.667969 L 231.433594 132.667969 Z M 231.433594 118.667969 "/>
<g style="fill:rgb(100%,0%,0%);fill-opacity:1;">
  <use xlink:href="#glyph0-1" x="231.433594" y="129.806641"/>
</g>
<path style="fill:none;stroke-width:1.2;stroke-linecap:butt;stroke-linejoin:miter;stroke:rgb(0%,0%,0%);stroke-opacity:1;stroke-miterlimit:10;" d="M 130.164062 137.785156 L 126.664062 107.109375 "/>
<path style="fill:none;stroke-width:1.2;stroke-linecap:butt;stroke-linejoin:miter;stroke:rgb(0%,0%,0%);stroke-opacity:1;stroke-miterlimit:10;" d="M 105.34375 156.15625 L 130.164062 137.785156 "/>
<path style="fill:none;stroke-width:1.2;stroke-linecap:butt;stroke-linejoin:miter;stroke:rgb(0%,0%,0%);stroke-opacity:1;stroke-miterlimit:10;" d="M 126.664062 107.109375 L 98.347656 94.800781 "/>
<path style="fill:none;stroke-width:1.2;stroke-linecap:butt;stroke-linejoin:miter;stroke:rgb(0%,0%,0%);stroke-opacity:1;stroke-miterlimit:10;" d="M 147.121094 83.980469 L 126.664062 107.109375 "/>
<path style=" stroke:none;fill-rule:nonzero;fill:rgb(0%,0%,0%);fill-opacity:1;" d="M 98.347656 94.800781 L 106.730469 64.585938 L 95.882812 63.542969 Z M 98.347656 94.800781 "/>
<path style="fill:none;stroke-width:1.2;stroke-linecap:butt;stroke-linejoin:miter;stroke:rgb(0%,0%,0%);stroke-opacity:1;stroke-miterlimit:10;" d="M 98.347656 94.800781 L 73.53125 113.167969 "/>
<path style="fill:none;stroke-width:1.2;stroke-linecap:butt;stroke-linejoin:miter;stroke:rgb(0%,0%,0%);stroke-opacity:1;stroke-miterlimit:10;" d="M 101.304688 64.066406 L 116.378906 60.722656 "/>
<path style="fill:none;stroke-width:1.2;stroke-linecap:butt;stroke-linejoin:miter;stroke:rgb(100%,0%,0%);stroke-opacity:1;stroke-miterlimit:10;" d="M 116.378906 60.722656 L 131.449219 57.378906 "/>
<path style="fill:none;stroke-width:1.2;stroke-linecap:butt;stroke-linejoin:miter;stroke:rgb(100%,0%,0%);stroke-opacity:1;stroke-miterlimit:10;" d="M 131.449219 57.378906 L 139.285156 70.679688 "/>
<path style="fill:none;stroke-width:1.2;stroke-linecap:butt;stroke-linejoin:miter;stroke:rgb(0%,0%,0%);stroke-opacity:1;stroke-miterlimit:10;" d="M 139.285156 70.679688 L 147.121094 83.980469 "/>
<path style=" stroke:none;fill-rule:nonzero;fill:rgb(100%,100%,100%);fill-opacity:1;" d="M 126.449219 50.378906 L 136.449219 50.378906 L 136.449219 64.378906 L 126.449219 64.378906 Z M 126.449219 50.378906 "/>
<g style="fill:rgb(100%,0%,0%);fill-opacity:1;">
  <use xlink:href="#glyph0-1" x="126.449219" y="61.517578"/>
</g>
<path style="fill:none;stroke-width:1.2;stroke-linecap:butt;stroke-linejoin:miter;stroke:rgb(0%,0%,0%);stroke-opacity:1;stroke-miterlimit:10;" d="M 146.773438 87.597656 L 162.140625 89.078125 "/>
<path style="fill:none;stroke-width:1.2;stroke-linecap:butt;stroke-linejoin:miter;stroke:rgb(100%,0%,0%);stroke-opacity:1;stroke-miterlimit:10;" d="M 162.140625 89.078125 L 177.507812 90.554688 "/>
<path style="fill:none;stroke-width:1.2;stroke-linecap:butt;stroke-linejoin:miter;stroke:rgb(0%,0%,0%);stroke-opacity:1;stroke-miterlimit:10;" d="M 147.46875 80.367188 L 162.835938 81.84375 "/>
<path style="fill:none;stroke-width:1.2;stroke-linecap:butt;stroke-linejoin:miter;stroke:rgb(100%,0%,0%);stroke-opacity:1;stroke-miterlimit:10;" d="M 162.835938 81.84375 L 178.203125 83.324219 "/>
<path style=" stroke:none;fill-rule:nonzero;fill:rgb(100%,100%,100%);fill-opacity:1;" d="M 172.855469 79.9375 L 182.855469 79.9375 L 182.855469 93.9375 L 172.855469 93.9375 Z M 172.855469 79.9375 "/>
<g style="fill:rgb(100%,0%,0%);fill-opacity:1;">
  <use xlink:href="#glyph0-1" x="172.855469" y="91.076172"/>
</g>
<path style="fill:none;stroke-width:1.2;stroke-linecap:butt;stroke-linejoin:miter;stroke:rgb(0%,0%,0%);stroke-opacity:1;stroke-miterlimit:10;" d="M 73.53125 113.167969 L 77.027344 143.84375 "/>
<path style="fill:none;stroke-width:1.2;stroke-linecap:butt;stroke-linejoin:miter;stroke:rgb(0%,0%,0%);stroke-opacity:1;stroke-miterlimit:10;" d="M 73.53125 113.167969 L 59.371094 107.011719 "/>
<path style="fill:none;stroke-width:1.2;stroke-linecap:butt;stroke-linejoin:miter;stroke:rgb(100%,0%,0%);stroke-opacity:1;stroke-miterlimit:10;" d="M 59.371094 107.011719 L 45.214844 100.859375 "/>
<path style="fill:none;stroke-width:1.2;stroke-linecap:butt;stroke-linejoin:miter;stroke:rgb(0%,0%,0%);stroke-opacity:1;stroke-miterlimit:10;" d="M 77.027344 143.84375 L 52.210938 162.214844 "/>
<path style="fill:none;stroke-width:1.2;stroke-linecap:butt;stroke-linejoin:miter;stroke:rgb(0%,0%,0%);stroke-opacity:1;stroke-miterlimit:10;" d="M 78.867188 151.523438 L 59.011719 166.214844 "/>
<path style="fill:none;stroke-width:1.2;stroke-linecap:butt;stroke-linejoin:miter;stroke:rgb(0%,0%,0%);stroke-opacity:1;stroke-miterlimit:10;" d="M 105.34375 156.15625 L 77.027344 143.84375 "/>
<path style="fill:none;stroke-width:1.2;stroke-linecap:butt;stroke-linejoin:miter;stroke:rgb(0%,0%,0%);stroke-opacity:1;stroke-miterlimit:10;" d="M 52.210938 162.214844 L 55.707031 192.890625 "/>
<path style="fill:none;stroke-width:1.2;stroke-linecap:butt;stroke-linejoin:miter;stroke:rgb(0%,0%,0%);stroke-opacity:1;stroke-miterlimit:10;" d="M 55.707031 192.890625 L 84.023438 205.199219 "/>
<path style="fill:none;stroke-width:1.2;stroke-linecap:butt;stroke-linejoin:miter;stroke:rgb(0%,0%,0%);stroke-opacity:1;stroke-miterlimit:10;" d="M 55.644531 200.785156 L 78.296875 210.632812 "/>
<path style="fill:none;stroke-width:1.2;stroke-linecap:butt;stroke-linejoin:miter;stroke:rgb(100%,0%,0%);stroke-opacity:1;stroke-miterlimit:10;" d="M 35.25 216.019531 L 45.480469 204.453125 "/>
<path style="fill:none;stroke-width:1.2;stroke-linecap:butt;stroke-linejoin:miter;stroke:rgb(0%,0%,0%);stroke-opacity:1;stroke-miterlimit:10;" d="M 45.480469 204.453125 L 55.707031 192.890625 "/>
<path style="fill:none;stroke-width:1.2;stroke-linecap:butt;stroke-linejoin:miter;stroke:rgb(0%,0%,0%);stroke-opacity:1;stroke-miterlimit:10;" d="M 84.023438 205.199219 L 108.84375 186.832031 "/>
<path style="fill:none;stroke-width:1.2;stroke-linecap:butt;stroke-linejoin:miter;stroke:rgb(0%,0%,0%);stroke-opacity:1;stroke-miterlimit:10;" d="M 84.023438 205.199219 L 82.546875 220.566406 "/>
<path style="fill:none;stroke-width:1.2;stroke-linecap:butt;stroke-linejoin:miter;stroke:rgb(100%,0%,0%);stroke-opacity:1;stroke-miterlimit:10;" d="M 82.546875 220.566406 L 81.066406 235.933594 "/>
<path style="fill:none;stroke-width:1.2;stroke-linecap:butt;stroke-linejoin:miter;stroke:rgb(0%,0%,0%);stroke-opacity:1;stroke-miterlimit:10;" d="M 108.84375 186.832031 L 105.34375 156.15625 "/>
<path style="fill:none;stroke-width:1.2;stroke-linecap:butt;stroke-linejoin:miter;stroke:rgb(0%,0%,0%);stroke-opacity:1;stroke-miterlimit:10;" d="M 101.273438 184.585938 L 98.476562 160.046875 "/>
<path style="fill:none;stroke-width:1.2;stroke-linecap:butt;stroke-linejoin:miter;stroke:rgb(100%,0%,0%);stroke-opacity:1;stroke-miterlimit:10;" d="M 81.066406 235.933594 L 65.996094 239.277344 "/>
<path style="fill:none;stroke-width:1.2;stroke-linecap:butt;stroke-linejoin:miter;stroke:rgb(0%,0%,0%);stroke-opacity:1;stroke-miterlimit:10;" d="M 65.996094 239.277344 L 50.921875 242.621094 "/>
<path style=" stroke:none;fill-rule:nonzero;fill:rgb(100%,100%,100%);fill-opacity:1;" d="M 76.066406 228.933594 L 86.066406 228.933594 L 86.066406 242.933594 L 76.066406 242.933594 Z M 76.066406 228.933594 "/>
<g style="fill:rgb(100%,0%,0%);fill-opacity:1;">
  <use xlink:href="#glyph0-1" x="76.066406" y="240.072266"/>
</g>
<path style="fill:none;stroke-width:1.2;stroke-linecap:butt;stroke-linejoin:miter;stroke:rgb(0%,0%,0%);stroke-opacity:1;stroke-miterlimit:10;" d="M 50.921875 242.621094 L 43.085938 229.320312 "/>
<path style="fill:none;stroke-width:1.2;stroke-linecap:butt;stroke-linejoin:miter;stroke:rgb(100%,0%,0%);stroke-opacity:1;stroke-miterlimit:10;" d="M 43.085938 229.320312 L 35.25 216.019531 "/>
<path style=" stroke:none;fill-rule:nonzero;fill:rgb(100%,100%,100%);fill-opacity:1;" d="M 30.25 209.019531 L 40.25 209.019531 L 40.25 223.019531 L 30.25 223.019531 Z M 30.25 209.019531 "/>
<g style="fill:rgb(100%,0%,0%);fill-opacity:1;">
  <use xlink:href="#glyph0-1" x="30.25" y="220.158203"/>
</g>
<path style=" stroke:none;fill-rule:nonzero;fill:rgb(100%,100%,100%);fill-opacity:1;" d="M 26.214844 93.859375 L 45.214844 93.859375 L 45.214844 107.859375 L 26.214844 107.859375 Z M 26.214844 93.859375 "/>
<g style="fill:rgb(100%,0%,0%);fill-opacity:1;">
  <use xlink:href="#glyph0-2" x="26.214844" y="104.998047"/>
  <use xlink:href="#glyph0-1" x="35.238281" y="104.998047"/>
</g>
</g>
</svg>

<svg xmlns="http://www.w3.org/2000/svg" xmlns:xlink="http://www.w3.org/1999/xlink" width="300pt" height="300pt" viewBox="0 0 300 300"><defs><symbol overflow="visible"><path d="M.594 2.125V-8.47h6V2.126zm.672-.672h4.671V-7.78h-4.67zm0 0"/></symbol><symbol overflow="visible" id="a"><path d="M4.734-7.953c-.867 0-1.554.324-2.062.97-.5.635-.75 1.51-.75 2.624 0 1.094.25 1.965.75 2.61.508.637 1.195.953 2.062.953.852 0 1.532-.316 2.032-.953.507-.645.765-1.516.765-2.61 0-1.113-.257-1.988-.764-2.624-.5-.645-1.18-.97-2.032-.97zm0-.953c1.22 0 2.192.414 2.922 1.234.74.824 1.11 1.93 1.11 3.313 0 1.376-.37 2.477-1.11 3.298C6.926-.24 5.953.17 4.734.17c-1.23 0-2.214-.41-2.953-1.234C1.04-1.882.673-2.984.673-4.36c0-1.382.367-2.488 1.11-3.312.738-.82 1.722-1.234 2.952-1.234zm0 0"/></symbol><symbol overflow="visible" id="b"><path d="M1.172-8.75H2.36v3.594h4.296V-8.75h1.188V0H6.656v-4.172H2.36V0H1.17zm0 0"/></symbol></defs><g><path fill="#fff" d="M0 0h300v300H0z"/><path d="M168.973 242.13l12.41-9.185" stroke-width="1.2" stroke="#000" stroke-miterlimit="10" fill="none"/><path d="M181.383 232.945l12.41-9.183M193.793 223.762l-1.75-15.34" stroke-width="1.2" stroke="#f00" stroke-miterlimit="10" fill="none"/><path d="M192.043 208.422l-1.75-15.34" stroke-width="1.2" stroke="#000" stroke-miterlimit="10" fill="none"/><path d="M188.793 216.762h10v14h-10zm0 0" fill="#fff"/><use xlink:href="#a" x="188.793" y="227.9" fill="#f00"/><path d="M190.293 193.082l-28.316-12.31M190.36 185.19l-22.653-9.846M215.113 174.715l-24.82 18.367M161.977 180.773l-3.497-30.675M158.48 150.098l24.817-18.37M165.285 154.098l19.852-14.692M158.48 150.098l-28.316-12.313M183.297 131.727l28.316 12.312M211.613 144.04l3.5 30.675M204.746 147.93l2.797 24.54M211.613 144.04l12.41-9.188" stroke-width="1.2" stroke="#000" stroke-miterlimit="10" fill="none"/><path d="M224.023 134.852l12.41-9.184" stroke-width="1.2" stroke="#f00" stroke-miterlimit="10" fill="none"/><path d="M215.113 174.715l14.157 6.156" stroke-width="1.2" stroke="#000" stroke-miterlimit="10" fill="none"/><path d="M229.27 180.87l14.16 6.153M243.43 187.023l1.75 15.34" stroke-width="1.2" stroke="#f00" stroke-miterlimit="10" fill="none"/><path d="M245.18 202.363l1.746 15.34" stroke-width="1.2" stroke="#000" stroke-miterlimit="10" fill="none"/><path d="M238.43 180.023h10v14h-10zm0 0" fill="#fff"/><use xlink:href="#a" x="238.43" y="191.162" fill="#f00"/><path d="M236.434 125.668l14.156 6.156" stroke-width="1.2" stroke="#f00" stroke-miterlimit="10" fill="none"/><path d="M250.59 131.824l14.16 6.156" stroke-width="1.2" stroke="#000" stroke-miterlimit="10" fill="none"/><path d="M231.434 118.668h10v14h-10zm0 0" fill="#fff"/><use xlink:href="#a" x="231.434" y="129.807" fill="#f00"/><path d="M130.164 137.785l-3.5-30.676M105.344 156.156l24.82-18.37M126.664 107.11L98.348 94.8M147.12 83.98l-20.456 23.13" stroke-width="1.2" stroke="#000" stroke-miterlimit="10" fill="none"/><path d="M98.348 94.8l8.382-30.214-10.847-1.043zm0 0"/><path d="M98.348 94.8L73.53 113.17M101.305 64.066l15.074-3.343" stroke-width="1.2" stroke="#000" stroke-miterlimit="10" fill="none"/><path d="M116.38 60.723l15.07-3.344M131.45 57.38l7.835 13.3" stroke-width="1.2" stroke="#f00" stroke-miterlimit="10" fill="none"/><path d="M139.285 70.68l7.836 13.3" stroke-width="1.2" stroke="#000" stroke-miterlimit="10" fill="none"/><path d="M126.45 50.38h10v14h-10zm0 0" fill="#fff"/><use xlink:href="#a" x="126.449" y="61.518" fill="#f00"/><path d="M146.773 87.598l15.368 1.48" stroke-width="1.2" stroke="#000" stroke-miterlimit="10" fill="none"/><path d="M162.14 89.078l15.368 1.477" stroke-width="1.2" stroke="#f00" stroke-miterlimit="10" fill="none"/><path d="M147.47 80.367l15.366 1.477" stroke-width="1.2" stroke="#000" stroke-miterlimit="10" fill="none"/><path d="M162.836 81.844l15.367 1.48" stroke-width="1.2" stroke="#f00" stroke-miterlimit="10" fill="none"/><path d="M172.855 79.938h10v14h-10zm0 0" fill="#fff"/><use xlink:href="#a" x="172.855" y="91.076" fill="#f00"/><path d="M73.53 113.168l3.497 30.676M73.53 113.168l-14.16-6.156" stroke-width="1.2" stroke="#000" stroke-miterlimit="10" fill="none"/><path d="M59.37 107.012l-14.155-6.153" stroke-width="1.2" stroke="#f00" stroke-miterlimit="10" fill="none"/><path d="M77.027 143.844l-24.816 18.37M78.867 151.523l-19.855 14.692M105.344 156.156l-28.317-12.312M52.21 162.215l3.497 30.676M55.707 192.89l28.316 12.31M55.645 200.785l22.652 9.848" stroke-width="1.2" stroke="#000" stroke-miterlimit="10" fill="none"/><path d="M35.25 216.02l10.23-11.567" stroke-width="1.2" stroke="#f00" stroke-miterlimit="10" fill="none"/><path d="M45.48 204.453l10.227-11.562M84.023 205.2l24.82-18.368M84.023 205.2l-1.476 15.366" stroke-width="1.2" stroke="#000" stroke-miterlimit="10" fill="none"/><path d="M82.547 220.566l-1.48 15.368" stroke-width="1.2" stroke="#f00" stroke-miterlimit="10" fill="none"/><path d="M108.844 186.832l-3.5-30.676M101.273 184.586l-2.796-24.54" stroke-width="1.2" stroke="#000" stroke-miterlimit="10" fill="none"/><path d="M81.066 235.934l-15.07 3.343" stroke-width="1.2" stroke="#f00" stroke-miterlimit="10" fill="none"/><path d="M65.996 239.277l-15.074 3.344" stroke-width="1.2" stroke="#000" stroke-miterlimit="10" fill="none"/><path d="M76.066 228.934h10v14h-10zm0 0" fill="#fff"/><use xlink:href="#a" x="76.066" y="240.072" fill="#f00"/><path d="M50.922 242.62l-7.836-13.3" stroke-width="1.2" stroke="#000" stroke-miterlimit="10" fill="none"/><path d="M43.086 229.32l-7.836-13.3" stroke-width="1.2" stroke="#f00" stroke-miterlimit="10" fill="none"/><path d="M30.25 209.02h10v14h-10zm0 0" fill="#fff"/><use xlink:href="#a" x="30.25" y="220.158" fill="#f00"/><path d="M26.215 93.86h19v14h-19zm0 0" fill="#fff"/><g fill="#f00"><use xlink:href="#b" x="26.215" y="104.998"/><use xlink:href="#a" x="35.238" y="104.998"/></g></g></svg>
